icons/24x24_gift_filled.svg

<svg xmlns="http://www.w3.org/2000/svg" width="24" height="24" viewBox="0 0 24 24">
  <path d="M17.6631844,8 L19,8 C20.1045695,8 21,8.8954305 21,10 L21,13 L3,13 L3,10 C3,8.8954305 3.8954305,8 5,8 L6.33681558,8 C6.12084552,7.54537231 6,7.03679865 6,6.5 C6,4.56700338 7.56700338,3 9.5,3 C10.4793441,3 11.3647415,3.40223361 12,4.05050863 C12.6352585,3.40223361 13.5206559,3 14.5,3 C16.4329966,3 18,4.56700338 18,6.5 C18,7.03679865 17.8791545,7.54537231 17.6631844,8 Z M11,14 L11,21 L6,21 C4.8954305,21 4,20.1045695 4,19 L4,14 L11,14 Z M13,14 L20,14 L20,19 C20,20.1045695 19.1045695,21 18,21 L13,21 L13,14 Z M14.5,8 C15.3284271,8 16,7.32842712 16,6.5 C16,5.67157288 15.3284271,5 14.5,5 C13.6715729,5 13,5.67157288 13,6.5 L13,8 L14.5,8 Z M9.5,8 L11,8 L11,6.5 C11,5.67157288 10.3284271,5 9.5,5 C8.67157288,5 8,5.67157288 8,6.5 C8,7.32842712 8.67157288,8 9.5,8 Z"/>
</svg>

<svg width="24" height="24" fill="none" xmlns="http://www.w3.org/2000/svg"><path d="M17.663 8H19a2 2 0 0 1 2 2v3H3v-3a2 2 0 0 1 2-2h1.337A3.5 3.5 0 0 1 12 4.05 3.5 3.5 0 0 1 17.663 8ZM11 14v7H6a2 2 0 0 1-2-2v-5h7Zm2 0h7v5a2 2 0 0 1-2 2h-5v-7Zm1.5-6A1.5 1.5 0 1 0 13 6.5V8h1.5Zm-5 0H11V6.5A1.5 1.5 0 1 0 9.5 8Z" fill="#000"/></svg>
